X:1
T:Ye saints and servants of the Lord
T:Ye saints and servants of the Lord (William Thorn)
T:Copyright © 
T:Copyright © 
T:Copyright © 
T:Copyright © 
C:William Thorn
Z:p12, Twenty Original
Z:Sacred Melodies,
Z:London: 1836
Z:Copyright ©
%%score [ 1 2 3 4 ]
L:1/8
M:3/4
K:C
V:1 treble nm="Soprano" snm="S."
V:2 treble nm="Alto" snm="A."
V:3 treble-8 transpose=-12 nm="Tenor" snm="T."
V:4 bass nm="Bass" snm="B."
V:1
 C2 E2 G2 | c4 z2 | E2 G2 c2 | e4 z2 | G2 c2 e2 | f3 g a2 | e4 d2 | c4 z2 || C2 E2 G2 | c4 e2 | %10
w: ||||||||Though ’tis be-|neath his|
w: ||||||||Ye saints and|ser- vants|
w: ||||||||God through the|world ex-|
 (e>d c2) B2 | c4 G2 | A4 B2 | c4 G2 | (G2 F2) E2 | (E2 D2) D2 | (ED E^F) (GA) | (BA Bc) (de) | %18
w: state _ _ to|view In|high- est|heav’n what|an- * gels|do, _ Yet|he _ _ _ to _|earth _ _ _ vouch- *|
w: of _ _ the|Lord, The|tri- umphs|of his|name _ re-|cord; _ His|sac- * * * red _|name _ _ _ for _|
w: tends _ _ his|sway; The|re- gions|of e-|ter- * nal|day _ But|sha- * * * dows _|of _ _ _ his _|
 (d>c B2) A2 | G4 G2 | (G2 B2) d2 | (G2 c2) d2 | e4 (dc) | (c2 B2) B2 | c4 d2 | e4 (ed) | c4 B2 | %27
w: safes _ _ his|care: He|takes _ the|nee- * dy|from his _|cell, _ Ad-|vanc- ing|him in _|courts to|
w: ev- * * er|bless. Where-|e’er _ the|circ- * ling|sun dis- *|plays _ Its|ris- ing|beams and _|set- ting|
w: glo- * * ry|are. With|him, _ whose|ma- * je-|sty ex- *|cels, _ Who|made the|heav’n in _|which he|
 A4"^Duet" c2 | G4 (A>G) | G4 (c>G) | (G2 F2) E2 | (E2 D2) E2 | (FE FG) (AB) | (cB cd) (ef) | %34
w: dwell, Com-|pan- ion _|to the _|great- * est|there, _ com-|pan- * * * ion _|to _ _ _ the _|
w: rays, Due|praise to _|his great _|name _ ad-|dress, _ due|praise _ _ _ to _|his _ _ _ great _|
w: dwells, Let|no cre- *|a- ted _|pow’r _ com-|pare, _ let|no _ _ _ cre- *|a- * * * ted _|
 (e>d c2) B2 | c6 || G2 c2 e2 | f3 g a2 | e4 d2 | c6 |] %40
w: great- * * est|there.|||||
w: name _ _ ad-|dress.|||||
w: pow’r _ _ com-|pare.|||||
V:2
 C2 E2 G2 | E4 z2 | C2 E2 G2 | c4 z2 | E2 G2 c2 | c3 e fd | [Gc]4 [FG]2 | [EG]4 z2 || C2 E2 G2 | %9
w: ||||||||Though ’tis be-|
w: ||||||||Ye saints and|
w: ||||||||God through the|
 C4 G2 | (G>F E2) D2 | E4 E2 | F4 D2 | E4 E2 | (E2 D2) C2 | (C2 B,2) B,2 | (C3 D) (D^F) | G4 G2 | %18
w: neath his|state _ _ to|view In|high- est|heav’n what|an- * gels|do, _ Yet|he _ to _|earth vouch-|
w: ser- vants|of _ _ the|Lord, The|tri- umphs|of his|name _ re-|cord; _ His|sac- * red _|name for|
w: world ex-|tends _ _ his|sway; The|re- gions|of e-|ter- * nal|day _ But|sha- * dows _|of his|
 (G2 D2) (DC) | B,4 B,2 | B,4 B,2 | C4 G2 | G4 (FD) | E4 E2 | E4 D2 | C4 (CD) | E4 D2 | C4 E2 | %28
w: safes _ his _|care: He|takes the|nee- dy|from his _|cell, Ad-|vanc- ing|him in _|courts to|dwell, Com-|
w: ev- * er _|bless. Where-|e’er the|circ- ling|sun dis- *|plays Its|ris- ing|beams and _|set- ting|rays, Due|
w: glo- * ry _|are. With|him, whose|ma- je-|sty ex- *|cels, Who|made the|heav’n in _|which he|dwells, Let|
 E4 (F>E) | E4 E2 | (E2 D2) C2 | (C2 B,2) C2 | C4 F2 | G4 (GA) | (G>F E2) D2 | E6 || E2 G2 c2 | %37
w: pan- ion _|to the|great- * est|there, _ com-|pan- ion|to the _|great- * * est|there.||
w: praise to _|his great|name _ ad-|dress, _ due|praise to|his great _|name _ _ ad-|dress.||
w: no cre- *|a- ted|pow’r _ com-|pare, _ let|no cre-|a- ted _|pow’r _ _ com-|pare.||
 c3 e f2 | [Gc]4 [FG]2 | [EG]6 |] %40
w: |||
w: |||
w: |||
V:3
 z6 | z6 | z6 | z6 | z6 | z6 | z6 | z6 || C2 E2 G2 | c4 c2 | G4 G2 | G4 c2 | A4 G2 | G4 G2 | %14
w: ||||||||Though ’tis be-|neath his|state to|view In|high- est|heav’n what|
w: ||||||||Ye saints and|ser- vants|of the|Lord, The|tri- umphs|of his|
w: ||||||||God through the|world ex-|tends his|sway; The|re- gions|of e-|
 G4 G2 | G4 G2 | (c3 A) (dc) | (Bc BA) (Gc) | (B>A G2) ^F2 | G4 G2 | G4 G2 | G4 B2 | c4 (BA) | %23
w: an- gels|do, Yet|he _ to _|earth _ _ _ vouch- *|safes _ _ his|care: He|takes the|nee- dy|from his _|
w: name re-|cord; His|sac- * red _|name _ _ _ for _|ev- * * er|bless. Where-|e’er the|circ- ling|sun dis- *|
w: ter- nal|day But|sha- * dows _|of _ _ _ his _|glo- * * ry|are. With|him, whose|ma- je-|sty ex- *|
 (A2 ^G2) B2 | A4 ^G2 | A4 (cB) | A4 ^G2 | A4 z2 | z6 | z6 | z6 | z4 c2 | c4 (cG) | G4 c2 | %34
w: cell, _ Ad-|vanc- ing|him in _|courts to|dwell,||||Com-|pan- ion _|to the|
w: plays _ Its|ris- ing|beams and _|set- ting|rays,||||Due|praise to _|his great|
w: cels, _ Who|made the|heav’n in _|which he|dwells,||||Let|no cre- *|a- ted|
 (c2 G2) G2 | G6 || z6 | z6 | z6 | z6 |] %40
w: great- * est|there.|||||
w: name _ ad-|dress.|||||
w: pow’r _ com-|pare.|||||
V:4
 C,2 E,2 G,2 | C2 G,F, E,D, | C,4 z2 | C,C B,C G,E, | C,E, G,C _B,C | A,C A,G, F,F,, | %6
w: ||||||
w: ||||||
w: ||||||
 G,,C, E,G, G,,G, | C,4 z2 || C,2 E,2 G,2 | C4 C,2 | G,4 G,,2 | C,4 C,2 | (F,2 D,2) G,2 | C,4 C,2 | %14
w: ||Though ’tis be-|neath his|state to|view In|high- * est|heav’n what|
w: ||Ye saints and|ser- vants|of the|Lord, The|tri- * umphs|of his|
w: ||God through the|world ex-|tends his|sway; The|re- * gions|of e-|
 (C,2 B,,2) C,2 | G,,4 G,,2 | C,4 (B,,A,,) | G,,4 G,2 | (B,,>C, D,2) D,2 | G,,4 G,,2 | G,4 F,2 | %21
w: an- * gels|do, Yet|he to _|earth vouch-|safes _ _ his|care: He|takes the|
w: name _ re-|cord; His|sac- red _|name for|ev- * * er|bless. Where-|e’er the|
w: ter- * nal|day But|sha- dows _|of his|glo- * * ry|are. With|him, whose|
 E,4 D,2 | C,4 D,2 | E,4 ^G,2 | A,4 E,2 | A,,4 D,2 | E,4 E,2 | A,,4 z2 |"^Instr." C,4 C,2 | %29
w: nee- dy|from his|cell, Ad-|vanc- ing|him in|courts to|dwell,||
w: circ- ling|sun dis-|plays Its|ris- ing|beams and|set- ting|rays,||
w: ma- je-|sty ex-|cels, Who|made the|heav’n in|which he|dwells,||
 C,4 C,2 | C,2 B,,2 C,2 | G,,4 C,2 | (A,3 E,) (F,D,) | (E,3 B,,) (C,F,) | G,4 G,,2 | C,6 || %36
w: ||* Com-|pan- * ion _|to _ the _|great- est|there.|
w: ||* Due|praise _ to _|his _ great _|name ad-|dress.|
w: ||* Let|no _ cre- *|a- * ted _|pow’r com-|pare.|
"^Notes: The source has the order of staves Tenore - Alto - Canto - Basso, with the alto part printed in the treble clef anoctave above sounding pitch, and with additional notes added between the air and bass (doubling the inner parts) toform a keyboard accompaniment. These notes have been omitted from the present edition, as has the figuring of the basspart, and the right hand of the keyboard part has been editorially split into two treble lines in the symphonies. The firstverse only of the text is underlaid in the source: two subsequent verses have been added here, as indicated by the titleof the piece. The original is in the key of D major: this edition has been transposed down by a tone." C,E, G,C _B,C | %37
w: |
w: |
w: |
 A,C A,G, F,F,, | G,,C, E,G, G,,G, | C,6 |] %40
w: |||
w: |||
w: |||

